X:1
T:St. Gertrude, 11.11.11.11 refrain
T:Arthur Seymour Sullivan, 1871
T:St. Gertrude, 11.11.11.11 refrain
T:Public Domain
C:Arthur Seymour Sullivan, 1871
Z:Public Domain
%%score ( 1 2 ) ( 3 4 )
L:1/8
M:4/4
K:Eb
V:1 treble 
V:2 treble 
V:3 bass 
V:4 bass 
V:1
 [GB]2 [GB]2 [GB]2 [GB]2 | (B3 c) [AB]4 | [DF]2 [DF]2 [CE]2 [DF]2 | [EG]8 | E2 [EG]2 [EB]2 [Ee]2 | %5
 [Fe]4 [Fd]4 | [Ec]2 [Ec]2 [EG]2 [E=A]2 | [DB]8 | [DF]2 [DF]2 [FB]2 [DF]2 | ([EG]3 [FA]) [EG]4 | %10
 [EB]2 [EB]2 [Ee]2 [EB]2 | [Ec]8 | [Ec]2 [EB]2 [EA]2 [EB]2 | (c2 B2) (A2 B2) | %14
 [Ec]2 [EB]2 [FA]2 [EG]2 | [DF]8 | [B,E]2 [B,E]2 [B,E]2 [B,E]2 | (E2 DC) (D2 E2) | %18
 [B,F]2 [B,F]2 [B,F]2 (EF) | [B,G]8 | [GB]2 [GB]2 [Ae]2 [Ad]2 | [Ge]4 [EB]4 | %22
 [EA]2 [EG]2 [DF]3 [B,E] | [B,E]8 |] %24
V:2
 x8 | A4 x4 | x8 | x8 | E2 x6 | x8 | x8 | x8 | x8 | x8 | x8 | x8 | x8 | E4 E4 | x8 | x8 | x8 | %17
 B,4 B,4 | x6 B,2 | x8 | x8 | x8 | x8 | x8 |] %24
V:3
 E,2 [E,G,]2 [E,B,]2 [E,E]2 | [F,E]4 [B,,D]4 | [A,B,]2 [A,B,]2 [G,B,]2 [F,B,]2 | [E,B,]8 | %4
 [G,B,]2 [G,B,]2 [G,B,]2 [G,B,]2 | (A,3 B,) [F,B,]4 | [F,=A,]2 [F,A,]2 [F,B,]2 [F,C]2 | [B,,B,]8 | %8
 [B,,B,]2 [B,,B,]2 [D,B,]2 [B,,B,]2 | [E,B,]4 [E,B,]4 | [E,G,]2 [E,G,]2 [G,B,]2 [E,G,]2 | A,8 | %12
 A,2 [E,G,]2 [C,A,]2 [E,G,]2 | (A,2 [E,G,]2) ([C,A,]2 [E,G,]2) | %14
 [A,,A,]2 [A,,G,]2 [A,,F,]2 [A,,F,]2 | [B,,B,]8 | [E,G,]2 [B,,G,]2 [E,G,]2 [B,,G,]2 | %17
 (F,2 B,,2) (F,2 B,,2) | [D,A,]2 [B,,A,]2 [D,A,]2 [B,,A,]2 | [E,G,]8 | %20
 [E,E]2 [E,E]2 [F,B,]2 [F,B,]2 | [G,B,]4 [G,,B,]4 | (A,,2 z B,) [B,,A,]3 [E,G,] | [E,G,]8 |] %24
V:4
 E,2 x6 | x8 | x8 | x8 | x8 | F,4 x4 | x8 | x8 | x8 | x8 | x8 | A,8 | A,2 x6 | A,2 x6 | x8 | x8 | %16
 x8 | A,4 A,4 | x8 | x8 | x8 | x8 | C3 A,,2 x3 | x8 |] %24

